!!!COM: Gaspar van Weerbeke
!!!CDT: ~1450-~1517
!!!OPR: Missa octavi toni
!!!OTL: Gloria
!!!OMV: 2
!!!AGN: Mass
!!!SCT: Gas0204c
!!!SCA: Gas0204c
!!!voices: 4
**kern	**text	**kern	**text	**kern	**text	**kern	**text
*part4	*part4	*part3	*part3	*part2	*part2	*part1	*part1
*staff4	*staff4	*staff3	*staff3	*staff2	*staff2	*staff1	*staff1
*I"Bassus	*	*I"Tenor	*	*I"Altus	*	*I"Cantus	*
*I'B	*	*I'T	*	*I'A	*	*I'C	*
*clefF4	*	*clefGv2	*	*clefGv2	*	*clefG2	*
*oclefF4	*	*oclefC4	*	*oclefC3	*	*oclefC1	*
*k[]	*	*k[]	*	*k[]	*	*k[]	*
*M3/2	*	*M3/2	*	*M3/2	*	*M3/2	*
*met(O)	*	*met(O)	*	*met(O)	*	*met(O)	*
=1	=1	=1	=1	=1	=1	=1	=1
1.r	.	1.G	Pa-	1.r	.	1g	Pa-
.	.	.	.	.	.	2g	-trem
=2	=2	=2	=2	=2	=2	=2	=2
1.r	.	2.c	-trem	1.r	.	2e	o-
.	.	.	.	.	.	4e	-mni-
.	.	4A	.	.	.	4f	-po-
.	.	2B	o-	.	.	2g	-ten-
=3	=3	=3	=3	=3	=3	=3	=3
1.r	.	4.A	-mni-	1.r	.	2.a	-tem,
.	.	8B	.	.	.	.	.
.	.	4c	-po-	.	.	.	.
.	.	2d	-ten-	.	.	8gL	.
.	.	.	.	.	.	8fJ	.
.	.	.	.	.	.	2e	.
.	.	4c#i	.	.	.	.	.
=4	=4	=4	=4	=4	=4	=4	=4
1.r	.	1.d	-tem,	1.r	.	2d	.
.	.	.	.	.	.	2a	fa-
.	.	.	.	.	.	4b	-cto-
.	.	.	.	.	.	4b	-rem
!!LO:LB:g=z
=5	=5	=5	=5	=5	=5	=5	=5
*	*	*	*	*	*	*col	*
1.r	.	1e	fa-	1.r	.	4.cc	ce-
.	.	.	.	.	.	8b	.
*	*	*	*	*	*	*Xcol	*
.	.	.	.	.	.	2g	.
.	.	2d	-cto-	.	.	2f	-li
=6	=6	=6	=6	=6	=6	=6	=6
1.r	.	4B	-rem	1.r	.	4d	et
.	.	4G	.	.	.	4.g	ter-
.	.	4.c	ce-	.	.	.	.
.	.	.	.	.	.	8fL	.
.	.	.	.	.	.	8e	.
.	.	8B	.	.	.	8dJ	.
.	.	8AL	.	.	.	4c	.
.	.	8G	.	.	.	.	.
.	.	8F	.	.	.	[4f	.
.	.	8EJ	.	.	.	.	.
=7	=7	=7	=7	=7	=7	=7	=7
1.r	.	4D	-li	1.r	.	8f]	.
.	.	.	.	.	.	8e	.
.	.	4B	et	.	.	4d	.
.	.	4A	.	.	.	4c	.
.	.	2G	ter-	.	.	4B	.
.	.	.	.	.	.	2A	-re,
.	.	4F#i	.	.	.	.	.
=8	=8	=8	=8	=8	=8	=8	=8
1.r	.	2G	-re,	1.r	.	2r	.
.	.	2r	.	.	.	2g	vi-
.	.	2G	vi-	.	.	4g	-si-
.	.	.	.	.	.	[4e	-bi-
=9	=9	=9	=9	=9	=9	=9	=9
1.r	.	4G	-si-	1.r	.	4e]	.
.	.	2E	-bi-	.	.	4c	-li-
.	.	.	.	.	.	2c	-um
.	.	4C	-li-	.	.	.	.
.	.	2C	-um	.	.	2g	o-
!!LO:LB:g=original
=10	=10	=10	=10	=10	=10	=10	=10
1.r	.	4r	.	1.r	.	4e	.
.	.	2G	o-	.	.	8dL	.
.	.	.	.	.	.	8cJ	.
.	.	.	.	.	.	4B	.
.	.	4E	.	.	.	4c	.
.	.	4C	.	.	.	4e	.
.	.	[4G	.	.	.	4d	.
=11	=11	=11	=11	=11	=11	=11	=11
1.r	.	4G]	.	1.r	.	4g	.
.	.	4.A	.	.	.	4.f	-mni-
.	.	8G	.	.	.	8eL	.
.	.	2c	-mni-	.	.	8d	.
.	.	.	.	.	.	8cJ	.
.	.	.	.	.	.	2d	.
.	.	4B	.	.	.	.	.
=12	=12	=12	=12	=12	=12	=12	=12
1.C	Et	2c	-um	1.r	.	1c	-um
.	.	2r	.	.	.	.	.
.	.	2c	et	.	.	2r	.
=13	=13	=13	=13	=13	=13	=13	=13
2F	.	4c	in-	1.r	.	1.r	.
.	.	2A	-vi-	.	.	.	.
4F	in-	.	.	.	.	.	.
2D	-vi-	4A	-si-	.	.	.	.
.	.	4.d	-bi-	.	.	.	.
4D	-si-	.	.	.	.	.	.
.	.	8c	.	.	.	.	.
=14	=14	=14	=14	=14	=14	=14	=14
2G	-bi-	8BL	.	1.r	.	1.r	.
.	.	8AJ	.	.	.	.	.
.	.	2G	.	.	.	.	.
4E	.	.	.	.	.	.	.
4C	.	2c	.	.	.	.	.
4E	.	.	.	.	.	.	.
4D	.	4B	.	.	.	.	.
!!LO:LB:g=original
=15	=15	=15	=15	=15	=15	=15	=15
4C	.	4A	.	1.r	.	1.r	.
2D	.	2B	.	.	.	.	.
4BB	.	2G	-li-	.	.	.	.
2AA	-li-	.	.	.	.	.	.
.	.	4F#i	.	.	.	.	.
=16	=16	=16	=16	=16	=16	=16	=16
1GG	-um.	2G	-um.	2d	Et	2r	.
.	.	2r	.	4e	in	2r	.
.	.	.	.	4e	u-	.	.
2GG	Et	2G	Et	4d	-num	2d	Et
.	.	.	.	4B	do-	.	.
=17	=17	=17	=17	=17	=17	=17	=17
4C	in	4G	in	4G	-mi-	4e	in
4C	u-	2G	u-	4c	.	4e	u-
2GG	-num	.	.	2B	-num	2d	-num
.	.	4G	-num	.	.	.	.
4GG	do-	2G	do-	2d	Je-	2g	do-
4GG	-mi-	.	.	.	.	.	.
=18	=18	=18	=18	=18	=18	=18	=18
4C	-num	4G	-mi-	4c	-sum	4g	-mi-
4BB	.	2G	-num	4d	.	2d	-num
4GG	Je-	.	.	4.B	Chri-	.	.
4GG	-sum	4G	Je-	.	.	4g	Je-
.	.	.	.	16cLL	.	.	.
.	.	.	.	16dJJ	.	.	.
4C	Chri-	4G	-sum	4e	.	4g	-sum
4E	.	4G	Chri-	4c	.	4g	Chri-
=19	=19	=19	=19	=19	=19	=19	=19
2.D	-stum,	1A	-stum,	1d	-stum,	1f	-stum,
4D	fi-	.	.	.	.	.	.
4C	-li-	2c	fi-	4.G	fi-	2e	fi-
4C	-um	.	.	.	.	.	.
.	.	.	.	8G	-li-	.	.
!!LO:LB:g=original
=20	=20	=20	=20	=20	=20	=20	=20
4E	de-	4B	-li-	4G	-um	4g	-li-
4F	.	4A	-um	4r	.	2a	-um
*lig	*	*	*	*	*	*	*
2D	.	2d	de-	2r	.	.	.
.	.	.	.	.	.	4a	de-
*	*	*	*	*	*edit	*col	*
2G	-i	2B-j	.	[2d	de-	4.g	.
.	.	.	.	.	.	8f	.
*Xlig	*	*	*	*	*	*Xcol	*
=21	=21	=21	=21	=21	=21	=21	=21
*	*edit	*	*	*	*	*	*
4D	u-	2A	-i	2d]	.	1f	-i
4D	-ni-	.	.	.	.	.	.
4D	-ge-	4r	.	4d	-i	.	.
*	*	*	*	*	*Xedit	*	*
4D	-ni-	2d	u-	2A	u-	.	.
2D	-tum,	.	.	.	.	4r	.
.	.	4d	-ni-	4A	-ni-	[4f	u-
=22	=22	=22	=22	=22	=22	=22	=22
2r	.	2d	-ge-	4D	-ge-	4f]	.
.	.	.	.	4D	-ni-	4f	-ni-
2r	.	2d	-ni-	2F	-tum,	4f	-ge-
.	.	.	.	.	.	4f	-ni-
*	*Xedit	*	*	*	*	*	*
2C	u-	2e	-tum.	2E	.	4.g	-tum.
.	.	.	.	.	.	8a	.
=23	=23	=23	=23	=23	=23	=23	=23
4D	-ni-	4d	.	4r	.	4b-j	.
*	*	*	*	*	*edit	*	*
2F	-ge-	2c	.	2A	‑ge-	2a	.
4G	.	4B	.	2.d	-ni-	2g	.
2D	-ni-	2A	.	.	.	.	.
.	.	.	.	.	.	4f#i	.
=24	=24	=24	=24	=24	=24	=24	=24
2GG	-tum.	2G	.	2B	-tum.	2g	.
4r	.	4r	.	4r	.	4r	.
*	*	*	*	*	*Xedit	*	*
2C	Et	2.G	Et	2c	Et	2e	Et
[4C	ex	.	.	[4c	ex	4e	ex
!!LO:LB:g=original
=25	=25	=25	=25	=25	=25	=25	=25
4C]	.	2G	ex	4c]	.	4e	pa-
4E	pa-	.	.	4c	pa-	4e	-tre
4D	-tre	4A	pa-	4d	-tre	4f	na-
4E	na-	4G	-tre	4c	na-	4e	.
2D	-tum	4A	na-	2d	-tum	4f	.
.	.	8GL	.	.	.	8eL	.
.	.	8FJ	.	.	.	8dJ	.
=26	=26	=26	=26	=26	=26	=26	=26
4r	.	2E	-tum	1.r	.	2c	-tum
2AA	an-	.	.	.	.	.	.
.	.	4r	.	.	.	4r	.
4AA	-te	2E	an-	.	.	2c	an-
2AA	o-	.	.	.	.	.	.
.	.	4E	-te	.	.	4c	-te
=27	=27	=27	=27	=27	=27	=27	=27
4D	.	4F	o-	1A	an-	4d	o-
4AA	-mni-	4E	-mni-	.	.	4c	.
2D	-a	4F	-a	.	.	4d	.
.	.	4D	.	.	.	4f	.
4C	se-	4G	se-	4c	-te	4e	.
4D	-cu-	4F	.	[4A	o-	[4d	-mni-
=28	=28	=28	=28	=28	=28	=28	=28
*	*	*lig	*	*	*	*	*
2AA	-la.	2E	-cu-	4A]	.	4d]	.
.	.	.	.	4A	-mni-	4c#i	.
2r	.	2D	-la.	4.A	-a	4d	-a
.	.	.	.	.	.	4f	se-
.	.	.	.	8B	.	.	.
*	*	*Xlig	*	*	*	*	*
2r	.	2r	.	4c	.	4e	.
.	.	.	.	[4d	se-	4d	.
=29	=29	=29	=29	=29	=29	=29	=29
1.r	.	2A	De-	4d]	.	2e	-cu-
.	.	.	.	4c#i	-cu-	.	.
.	.	4B	-um	2d	-la.	4d	.
.	.	2d	de	.	.	4f	.
.	.	.	.	2A	.	2e	-la.
.	.	4c#i	de-	.	.	.	.
!!LO:LB:g=original
=30	=30	=30	=30	=30	=30	=30	=30
4.D	De-	2d	-o,	1.r	.	1.r	.
8C	-um	.	.	.	.	.	.
*	*	*col	*	*	*	*	*
4BB	de	4.d	lu-	.	.	.	.
4AA	de-	.	.	.	.	.	.
.	.	8c	.	.	.	.	.
*	*	*Xcol	*	*	*	*	*
4GG	-o,	4B	.	.	.	.	.
4C	lu-	4A	-men	.	.	.	.
=31	=31	=31	=31	=31	=31	=31	=31
4BB	-men	4G	de	1.r	.	1.r	.
4AA	de	4c	lu-	.	.	.	.
4D	lu-	4B	.	.	.	.	.
4C	.	2A	-mi-	.	.	.	.
2BB	-mi-	.	.	.	.	.	.
.	.	4G#i	.	.	.	.	.
=32	=32	=32	=32	=32	=32	=32	=32
2AA	-ne,	2A	-ne,	1.r	.	1.r	.
4AA	de-	4r	.	.	.	.	.
2D	-um	4A	de-	.	.	.	.
.	.	4B	.	.	.	.	.
4E	ve-	4c	.	.	.	.	.
=33	=33	=33	=33	=33	=33	=33	=33
4F	.	4A	-um	1.r	.	1.r	.
4D	.	2d	ve-	.	.	.	.
2G	-rum	.	.	.	.	.	.
.	.	4B	-rum	.	.	.	.
4E	de	4c	.	.	.	.	.
4F	.	[4A	de	.	.	.	.
=34	=34	=34	=34	=34	=34	=34	=34
2D	de-	4A]	.	1.r	.	1.r	.
.	.	4B	de-	.	.	.	.
4E	.	4G	.	.	.	.	.
4C	.	2A	-o	.	.	.	.
2D	-o	.	.	.	.	.	.
.	.	4F	ve-	.	.	.	.
!!LO:LB:g=original
=35	=35	=35	=35	=35	=35	=35	=35
4BB	ve-	2D	.	1.r	.	1.r	.
4GG	.	.	.	.	.	.	.
4C	.	4E	.	.	.	.	.
4BB	.	2G	.	.	.	.	.
2AA	.	.	.	.	.	.	.
.	.	4F#i	.	.	.	.	.
=36	=36	=36	=36	=36	=36	=36	=36
1GG	-ro.	2G	-ro.	1.r	.	4g	Ge-
.	.	.	.	.	.	4g	-ni-
.	.	2r	.	.	.	4g	-tum,
.	.	.	.	.	.	4g	non
2r	.	2r	.	.	.	2a	fa-
=37	=37	=37	=37	=37	=37	=37	=37
1.r	.	1G	Ge-	1.r	.	4g	.
.	.	.	.	.	.	4.b	.
.	.	.	.	.	.	8a	.
.	.	.	.	.	.	2g	.
.	.	2A	-ni-	.	.	.	.
.	.	.	.	.	.	4f#i	.
=38	=38	=38	=38	=38	=38	=38	=38
4GG	Ge-	4G	-tum,	4G	Ge-	4g	.
4GG	-ni-	2B	non	4G	-ni-	2d	.
4GG	-tum,	.	.	4G	-tum,	.	.
4GG	non	2G	fa-	4G	non	4B	.
2D	fa-	.	.	2A	fa-	2A	-ctum,
.	.	4F#i	.	.	.	.	.
=39	=39	=39	=39	=39	=39	=39	=39
4BB	-ctum,	2G	-ctum,	4G	-ctum,	4g	con-
4GG	.	.	.	4B	con-	4g	-sub-
4C	con-	4r	.	4A	-sub-	4a	-stan-
4BB	-sub-	4G	con-	2G	-stan-	4b	-ti-
2AA	-stan-	4A	-sub-	.	.	2cc	-a-
.	.	4A	-stan-	4F#i	-ti-	.	.
!!LO:LB:g=original
=40	=40	=40	=40	=40	=40	=40	=40
2GG	-ti-	2D	-ti-	4G	-a-	2b	-lem
.	.	.	.	2d	.	.	.
4D	-a-	4F	-a-	.	.	4a	pa-
4E	-lem	4G	-lem	4c	-lem	2g	.
2D	pa-	2A	pa-	2d	pa-	.	.
.	.	.	.	.	.	4f#i	.
=41	=41	=41	=41	=41	=41	=41	=41
2GG	-tri,	2G	-tri,	2B	-tri,	1g	-tri,
2r	.	2r	.	2c	per	.	.
2G	per	2r	.	2B	quem	2r	.
=42	=42	=42	=42	=42	=42	=42	=42
2F	quem	1.r	.	2A	o-	2cc	per
4G	o-	.	.	2G	-mni-	2b	quem
4G	-mni-	.	.	.	.	.	.
2F	-a	.	.	2c	-a	4a	o-
.	.	.	.	.	.	4a	-mni-
=43	=43	=43	=43	=43	=43	=43	=43
4G	fa-	1.r	.	4B	fa-	2g	-a
4E	.	.	.	4G	.	.	.
2F	.	.	.	2A	.	2cc	fa-
2G	.	.	.	4G	.	4b	.
.	.	.	.	4B	.	4g	.
=44	=44	=44	=44	=44	=44	=44	=44
2F	-cta	2r	.	4c	.	2a	.
*	*	*	*	*lig	*	*	*
.	.	.	.	2A	.	.	.
2D	sunt.	2r	.	.	.	4f	.
.	.	.	.	2d	-cta	4d	.
*	*	*	*edit	*	*	*	*
2r	.	2A	Qui	.	.	2e	-cta
*	*	*	*	*Xlig	*	*	*
.	.	.	.	4c#i	.	.	.
!!LO:LB:g=original
=45	=45	=45	=45	=45	=45	=45	=45
2r	.	4B	.	2d	sunt.	2d	sunt.
.	.	2d	pro-	.	.	.	.
*	*edit	*	*	*	*	*	*
2A	Qui	.	.	2e	.	2r	.
.	.	4c#i	.	.	.	.	.
4F	pro-	[2d	-pter	2d	Qui	2r	.
4G	.	.	.	.	.	.	.
=46	=46	=46	=46	=46	=46	=46	=46
1D	-pter,	1d]	.	4r	.	2a	Qui
.	.	.	.	4.f	pro-	.	.
.	.	.	.	.	.	4b	.
.	.	.	.	8e	.	.	.
.	.	.	.	4d	-pter	2dd	pro-
2r	.	2e	nos	2A	nos	.	.
.	.	.	.	.	.	4cc#i	.
=47	=47	=47	=47	=47	=47	=47	=47
*	*	*col	*	*	*	*	*
*	*Xedit	*lig	*	*	*	*	*
4D	qui	1d	ho-	1.r	.	4.dd	-pter
2G	pro-	.	.	.	.	.	.
.	.	.	.	.	.	8cc	.
.	.	.	.	.	.	4b	.
4D	-pter	.	.	.	.	4.a	nos
4F	nos	[2c	.	.	.	.	.
.	.	.	.	.	.	8g	.
4C	.	.	.	.	.	[4g	ho-
*	*	*Xlig	*	*	*	*	*
=48	=48	=48	=48	=48	=48	=48	=48
2E	ho-	2c]	.	2r	.	4g]	.
.	.	.	.	.	.	4e	.
4D	.	4d	.	4d	ho-	4f	.
4F	.	4A	.	4d	-mi-	2a	.
2G	-mi-	2B-i	-mi-	2d	-nes,	.	.
.	.	.	.	.	.	4g	-mi-
*	*	*Xcol	*	*	*	*	*
=49	=49	=49	=49	=49	=49	=49	=49
1D	-nes,	1.A	-nes,	4r	.	2a	-nes,
.	.	.	.	2f	et	.	.
.	.	.	.	.	.	2r	.
.	.	.	.	2f	pro-	.	.
2r	.	.	.	.	.	[2a	et
.	.	.	.	4f	-pter	.	.
!!LO:LB:g=original
=50	=50	=50	=50	=50	=50	=50	=50
*	*	*	*Xedit	*	*	*	*
2D	et	4A	et	2d	no-	2a]	.
.	.	2F	pro-	.	.	.	.
2D	pro-	.	.	4A	.	4a	pro-
.	.	4D	-pter	4d	.	2f	.
4D	-pter	4.A	no-	4.f	.	.	.
[4D	no-	.	.	.	.	4d	-pter
.	.	8G	.	8e	.	.	.
=51	=51	=51	=51	=51	=51	=51	=51
4D]	.	8FL	.	8dL	.	4.a	no-
.	.	8EJ	.	8cJ	.	.	.
2D	-stram	2F	.	2d	.	.	.
.	.	.	.	.	.	8g	.
.	.	.	.	.	.	8fL	.
.	.	.	.	.	.	8eJ	.
4D	sa-	4D	-stram	2A	-stram	2f	.
2D	-lu-	2d	sa-	.	.	.	.
.	.	.	.	4F	sa-	4d	-stram
=52	=52	=52	=52	=52	=52	=52	=52
2D	-tem,	4A	.	4.D	-lu-	4f	sa-
.	.	4B-i	.	.	.	4d	.
.	.	.	.	8E	.	.	.
4r	.	4A	.	4F	.	4c	-lu-
4D	de-	2d	-lu-	4D	.	4d	.
2AA	-scen-	.	.	[2A	-tem,	2e	-tem,
.	.	4c#i	.	.	.	.	.
=53	=53	=53	=53	=53	=53	=53	=53
2D	-dit	2d	-tem,	2A]	.	4r	.
*	*	*	*	*	*	*col	*
.	.	.	.	.	.	4.dd	de-
2G	.	4B	.	4r	.	.	.
.	.	.	.	.	.	8cc	.
*	*	*	*	*	*	*Xcol	*
.	.	4G	.	4G	de-	4b	-scen-
4F	.	4r	.	[2A	-scen-	4.a	-dit
*	*	*col	*	*	*	*	*
[4D	de	[4d	de-	.	.	.	.
.	.	.	.	.	.	8g	.
=54	=54	=54	=54	=54	=54	=54	=54
4D]	.	8d]	.	4A]	.	8fL	.
*	*	*Xcol	*	*	*	*	*
.	.	8c	.	.	.	8eJ	.
4G	.	4B	-scen-	4B	.	4d	de
4F	.	4A	-dit	2c	-dit	4r	.
4E	.	4G	de	.	.	2g	ce-
2D	ce-	2A	ce-	2d	de	.	.
.	.	.	.	.	.	4f#i	.
!!LO:LB:g=original
=55	=55	=55	=55	=55	=55	=55	=55
[1.GGl	-lis.	[1.Gl	-lis.	4.B	ce-	[1.gl	-lis.
.	.	.	.	8c	.	.	.
.	.	.	.	4d	.	.	.
.	.	.	.	2e	.	.	.
.	.	.	.	4d	.	.	.
=56	=56	=56	=56	=56	=56	=56	=56
1.GG]	.	1.G]	.	1.dl	-lis.	1.g]	.
!!LO:LB:g=original
=57||	=57||	=57||	=57||	=57||	=57||	=57||	=57||
*M2/2	*	*M2/2	*	*M2/2	*	*M2/2	*
*met(C|)	*	*met(C|)	*	*met(C|)	*	*met(C|)	*
1GG	Et	1G	Et	1d	Et	1g	Et
=58	=58	=58	=58	=58	=58	=58	=58
2C	in-	2G	in-	2c	in-	2g	in-
2E	-car-	2G	-car-	2c	-car-	2e	-car-
=59	=59	=59	=59	=59	=59	=59	=59
2D	-na-	2A	-na-	2d	-na-	2f	-na-
2D	-tus	2B	-tus	2d	-tus	2f	-tus
=60	=60	=60	=60	=60	=60	=60	=60
1C	est	1c	est	1G	est	1e	est
=61	=61	=61	=61	=61	=61	=61	=61
2r	.	2r	.	2r	.	2r	.
2F	de	2c	de	2A	de	2a	de
=62	=62	=62	=62	=62	=62	=62	=62
2F	spi-	2c	spi-	2A	spi-	2a	spi-
2F	-ri-	2c	-ri-	2F	-ri-	2a	-ri-
=63	=63	=63	=63	=63	=63	=63	=63
*lig	*	*	*	*	*	*	*
2E	-tu	2c	-tu	2G	-tu	2g	-tu
2D	.	[2d	san-	[2A	san-	2f	san-
*Xlig	*	*	*	*	*	*	*
=64	=64	=64	=64	=64	=64	=64	=64
1E	san-	2d]	.	2A]	.	1g	.
.	.	2c#i	.	2G	.	.	.
=65	=65	=65	=65	=65	=65	=65	=65
1D;	-cto	1d;	-cto	1A;	-cto	1f#j;	-cto
!!LO:LB:g=original
=66	=66	=66	=66	=66	=66	=66	=66
2F	ex	2c	ex	2A	ex	2a	ex
2F	Ma-	2c	Ma-	2A	Ma-	2a	Ma-
=67	=67	=67	=67	=67	=67	=67	=67
1C	-ri-	1e	-ri-	1c	-ri-	1g	-ri-
=68	=68	=68	=68	=68	=68	=68	=68
1D	-a	1d	-a	2.A	-a	1f	-a
.	.	.	.	4G	.	.	.
=69	=69	=69	=69	=69	=69	=69	=69
2C	vir-	2e	vir-	2E	.	2g	vir-
[2D	.	2d	-gi-	2r	.	2f	.
=70	=70	=70	=70	=70	=70	=70	=70
*	*	*lig	*	*	*	*lig	*
2D]	.	1B	-ne:	2F	vir-	2d	-gi-
2BB	.	.	.	2D	-gi-	2g	.
*	*	*	*	*	*	*Xlig	*
=71	=71	=71	=71	=71	=71	=71	=71
*	*	*	*	*lig	*	*lig	*
1AA	-gi-	1c	.	2E	-ne:	2a	-ne:
.	.	.	.	2F#i	.	2cc	.
=72	=72	=72	=72	=72	=72	=72	=72
1GG	-ne:	1d	.	1G	.	1b	.
*	*	*Xlig	*	*Xlig	*	*Xlig	*
=73	=73	=73	=73	=73	=73	=73	=73
2r	.	2r	.	2r	.	2r	.
2G	et	2d	et	2G	et	2b	et
=74	=74	=74	=74	=74	=74	=74	=74
2G	ho-	2d	ho-	2B	ho-	2b	ho-
2G	-mo	2B	-mo	4.d	-mo	2b	-mo
.	.	.	.	8e	.	.	.
!!LO:LB:g=original
=75	=75	=75	=75	=75	=75	=75	=75
*lig	*	*	*	*	*	*lig	*
*	*	*	*	*	*edit	*	*
2F	fa-	1c	fa-	2f	fa-	2a	fa-
2A	.	.	.	4e	.	2cc	.
.	.	.	.	4f	.	.	.
*Xlig	*	*	*	*	*	*Xlig	*
=76	=76	=76	=76	=76	=76	=76	=76
*	*	*col	*	*	*	*col	*
2G	.	4.d	.	4g	.	4.b	.
.	.	.	.	4e	.	.	.
.	.	8B	.	.	.	8g	.
*	*	*Xcol	*	*	*	*Xcol	*
4F	.	4c	.	4f	-ctus,	4a	.
4G	.	4B	.	4d	.	4b	.
=77	=77	=77	=77	=77	=77	=77	=77
4F	.	4c	.	4r	.	4a	.
*	*	*	*	*	*	*col	*
4G	.	4B	.	4d	fa-	4.b	.
2E	.	2c	.	2e	.	.	.
.	.	.	.	.	.	8a	.
*	*	*	*	*	*	*Xcol	*
.	.	.	.	.	.	4g	.
=78	=78	=78	=78	=78	=78	=78	=78
*lig	*	*	*	*	*	*	*
[1D	-ctus	4.d	.	2A	-ctus,	2f#i	-ctus,
.	.	8c	.	.	.	.	.
*	*	*	*	*	*	*	*edit
.	.	2A	-ctus,	4r	.	4.f#i	fa-
*	*	*	*	*	*Xedit	*	*
.	.	.	.	[4d	fa-	.	.
.	.	.	.	.	.	8g	.
=79	=79	=79	=79	=79	=79	=79	=79
*	*	*	*edit	*	*	*	*
1D_	.	4.F#i	fa-	4d]	.	8aL	.
.	.	.	.	.	.	8bJ	.
.	.	.	.	8cL	.	4.a	.
.	.	8G	.	8BJ	.	.	.
.	.	8AL	.	2A	-ctus,	.	.
.	.	8BJ	.	.	.	8gL	.
.	.	4A	.	.	.	8f#i	.
.	.	.	.	.	.	8eJ	.
=80	=80	=80	=80	=80	=80	=80	=80
1D]	.	4d	.	4r	.	4f#i	.
*	*	*	*	*	*edit	*	*
.	.	4B	.	4.d	fa-	2g	-ctus
.	.	2A	-ctus	.	.	.	.
.	.	.	.	8cL	.	.	.
.	.	.	.	8B	-ctus	4f#i	.
.	.	.	.	8AJ	.	.	.
=81	=81	=81	=81	=81	=81	=81	=81
*	*	*	*Xedit	*	*Xedit	*	*Xedit
0GGl	est.	0Gl	est.	0Bl 0dl	est.	0gl	est.
*Xlig	*	*	*	*	*	*	*
!!LO:LB:g=original
=82||	=82||	=82||	=82||	=82||	=82||	=82||	=82||
*M2/2	*	*M2/2	*	*M2/2	*	*M2/2	*
*met(C|)	*	*met(C|)	*	*met(C|)	*	*met(C|)	*
2GG	Cru-	1r	.	1r	.	1r	.
2C	-ci-	.	.	.	.	.	.
=83	=83	=83	=83	=83	=83	=83	=83
2BB	-fi-	1r	.	2G	Cru-	1r	.
2AA	-xus	.	.	2c	-ci-	.	.
=84	=84	=84	=84	=84	=84	=84	=84
4G	e-	1r	.	2B	-fi-	1r	.
4G	-ti-	.	.	.	.	.	.
4A	-am	.	.	2A	-xus	.	.
4F	pro	.	.	.	.	.	.
=85	=85	=85	=85	=85	=85	=85	=85
2E	no-	1r	.	4c	e-	1r	.
.	.	.	.	4c	-ti-	.	.
4D	.	.	.	4d	-am	.	.
4G	.	.	.	4B	pro	.	.
=86	=86	=86	=86	=86	=86	=86	=86
4F	.	1r	.	2A	no-	1r	.
4D	.	.	.	.	.	.	.
2E	.	.	.	2G	-bis;	.	.
=87	=87	=87	=87	=87	=87	=87	=87
2D	-bis;	1r	.	4r	.	1r	.
.	.	.	.	4d	sub	.	.
4r	.	.	.	4c	Pon-	.	.
4F	sub	.	.	4A	.	.	.
=88	=88	=88	=88	=88	=88	=88	=88
4G	Pon-	1r	.	2B	-ti-	1r	.
4E	.	.	.	.	.	.	.
4F	.	.	.	2A	-o	.	.
8EL	-ti-	.	.	.	.	.	.
8DJ	.	.	.	.	.	.	.
!!LO:LB:g=original
=89	=89	=89	=89	=89	=89	=89	=89
2C	-o	1r	.	4r	.	1r	.
.	.	.	.	4c	Pi-	.	.
4r	.	.	.	4d	-la-	.	.
4G	Pi-	.	.	4B	.	.	.
=90	=90	=90	=90	=90	=90	=90	=90
4E	-la-	1r	.	4c	-to	1r	.
4F	.	.	.	8BL	.	.	.
.	.	.	.	8AJ	.	.	.
2G	-to	.	.	4G	.	.	.
.	.	.	.	4d	pas-	.	.
=91	=91	=91	=91	=91	=91	=91	=91
4G	pas-	1r	.	4B	.	1r	.
4E	.	.	.	4c	.	.	.
4F	.	.	.	[2d	-sus	.	.
[4D	-sus	.	.	.	.	.	.
=92	=92	=92	=92	=92	=92	=92	=92
4D]	.	1r	.	4d]	.	1r	.
4G	et	.	.	4B	et	.	.
4E	.	.	.	4c	.	.	.
4F	se-	.	.	[4A	se-	.	.
=93	=93	=93	=93	=93	=93	=93	=93
2D	-pul-	1r	.	4A]	.	1r	.
.	.	.	.	4d	-pul-	.	.
4G	.	.	.	4B	.	.	.
4E	.	.	.	4c	.	.	.
=94	=94	=94	=94	=94	=94	=94	=94
4F	.	1r	.	4A	.	1r	.
4.D	.	.	.	4.B	.	.	.
8C	.	.	.	8A	.	.	.
4BB	.	.	.	4G	.	.	.
=95	=95	=95	=95	=95	=95	=95	=95
4AA	.	1r	.	4F#i	.	1r	.
4GG	.	.	.	2G	.	.	.
2AA	-tus	.	.	.	.	.	.
.	.	.	.	4F#i	-tus	.	.
!!LO:LB:g=original
=96	=96	=96	=96	=96	=96	=96	=96
0GG	est.	0r	.	0G	est.	0r	.
!!LO:LB:g=original
=97||	=97||	=97||	=97||	=97||	=97||	=97||	=97||
*M2/2	*	*M2/2	*	*M2/2	*	*M2/2	*
*met(C|)	*	*met(C|)	*	*met(C|)	*	*met(C|)	*
1r	.	2G	Et	1r	.	1r	.
.	.	4c	re-	.	.	.	.
.	.	4c	-sur-	.	.	.	.
=98	=98	=98	=98	=98	=98	=98	=98
1r	.	2B	-re-	1r	.	2g	Et
.	.	2A	-xit	.	.	4cc	re-
.	.	.	.	.	.	4cc	-sur-
=99	=99	=99	=99	=99	=99	=99	=99
1r	.	4r	.	1r	.	2b	-re-
.	.	4G	ter-	.	.	.	.
.	.	4A	.	.	.	2a	-xit
.	.	4F	.	.	.	.	.
=100	=100	=100	=100	=100	=100	=100	=100
1r	.	2E	-ti-	1r	.	4r	.
.	.	.	.	.	.	4g	ter-
.	.	4D	-a	.	.	4a	.
.	.	[4d	di-	.	.	4f	.
=101	=101	=101	=101	=101	=101	=101	=101
1r	.	4d]	.	1r	.	2e	-ti-
.	.	4c	.	.	.	.	.
.	.	2B	.	.	.	4d	-a
.	.	.	.	.	.	[4dd	di-
=102	=102	=102	=102	=102	=102	=102	=102
1r	.	2A	-e	1r	.	4dd]	.
.	.	.	.	.	.	4cc	.
.	.	4r	.	.	.	2b	.
.	.	4G	se-	.	.	.	.
=103	=103	=103	=103	=103	=103	=103	=103
1r	.	4F	-cun-	1r	.	2a	-e
.	.	4D	.	.	.	.	.
.	.	4F	.	.	.	4r	.
.	.	4E	.	.	.	4g	se-
!!LO:LB:g=original
=104	=104	=104	=104	=104	=104	=104	=104
1r	.	2D	-dum	1r	.	4f	-cun-
.	.	.	.	.	.	4d	.
.	.	4d	scri-	.	.	4f	.
.	.	4c	.	.	.	4e	.
=105	=105	=105	=105	=105	=105	=105	=105
1r	.	4B	.	1r	.	4d	-dum
.	.	2A	.	.	.	2f	scri-
.	.	4G	.	.	.	[4e	.
=106	=106	=106	=106	=106	=106	=106	=106
1r	.	4A	.	1r	.	4e]	.
.	.	4F	.	.	.	2d	-ptu-
.	.	2E	-ptu-	.	.	.	.
.	.	.	.	.	.	4c#i	.
=107	=107	=107	=107	=107	=107	=107	=107
1r	.	1D	-ras.	1r	.	2d	-ras.
.	.	.	.	.	.	2a	Et
=108	=108	=108	=108	=108	=108	=108	=108
1r	.	2r	.	1r	.	4b	a-
.	.	.	.	.	.	2cc	-scen-
.	.	2A	Et	.	.	.	.
.	.	.	.	.	.	8bL	.
.	.	.	.	.	.	8aJ	.
=109	=109	=109	=109	=109	=109	=109	=109
1r	.	4B	a-	1r	.	2g	-dit
.	.	2c	-scen-	.	.	.	.
.	.	.	.	.	.	[2a	in
.	.	4d	.	.	.	.	.
=110	=110	=110	=110	=110	=110	=110	=110
1r	.	4c	.	1r	.	4a]	.
.	.	2d	-dit	.	.	4b	.
.	.	.	.	.	.	4a	.
.	.	4d	in	.	.	[4dd	ce-
!!LO:LB:g=original
=111	=111	=111	=111	=111	=111	=111	=111
1r	.	2e	ce-	1r	.	4dd]	.
.	.	.	.	.	.	4cc#i	.
.	.	4d	.	.	.	2dd	-lum;
.	.	4B	.	.	.	.	.
=112	=112	=112	=112	=112	=112	=112	=112
*	*	*col	*	*	*	*	*
1r	.	4.c	.	1r	.	4r	.
.	.	.	.	.	.	4cc	se-
.	.	8B	.	.	.	.	.
*	*	*Xcol	*	*	*	*	*
.	.	2G	-lum;	.	.	4dd	.
.	.	.	.	.	.	4b	.
=113	=113	=113	=113	=113	=113	=113	=113
*	*	*	*	*	*	*col	*
1r	.	2A	se-	1r	.	4.cc	.
.	.	.	.	.	.	8b	.
*	*	*	*	*	*	*Xcol	*
.	.	4B	-det	.	.	2g	-det
.	.	[4c	ad	.	.	.	.
=114	=114	=114	=114	=114	=114	=114	=114
1r	.	8cL]	.	1r	.	4r	.
.	.	8B	.	.	.	.	.
.	.	8A	.	.	.	2a	ad
.	.	8GJ	.	.	.	.	.
.	.	2F	dex-	.	.	.	.
*	*	*	*	*	*	*col	*
.	.	.	.	.	.	[4cc	dex-
=115	=115	=115	=115	=115	=115	=115	=115
1r	.	2E	-te-	1r	.	8cc]	.
.	.	.	.	.	.	8bL	.
*	*	*	*	*	*	*Xcol	*
.	.	.	.	.	.	8a	.
.	.	.	.	.	.	8gJ	.
.	.	4D	-ram	.	.	2f	.
.	.	[4A	pa-	.	.	.	.
=116	=116	=116	=116	=116	=116	=116	=116
1r	.	4A]	.	1r	.	2e	-te-
.	.	4c	.	.	.	.	.
.	.	4B	.	.	.	4d	-ram
.	.	[4d	.	.	.	[4a	pa-
=117	=117	=117	=117	=117	=117	=117	=117
1r	.	8d]	.	1r	.	4a]	.
.	.	8cL	.	.	.	.	.
.	.	8B	.	.	.	4cc	.
.	.	8AJ	.	.	.	.	.
.	.	4G	.	.	.	4b	.
.	.	[4B	.	.	.	[4dd	.
!!LO:LB:g=original
=118	=118	=118	=118	=118	=118	=118	=118
1r	.	8B]	.	1r	.	8dd]	.
.	.	8c	.	.	.	8ccL	.
.	.	4d	.	.	.	8b	.
.	.	.	.	.	.	8aJ	.
.	.	4e	.	.	.	4g	.
.	.	[4d	.	.	.	4b	.
=119	=119	=119	=119	=119	=119	=119	=119
1r	.	4d]	.	1r	.	4a	.
.	.	4B	.	.	.	2g	.
.	.	2A	.	.	.	.	.
.	.	.	.	.	.	4f#i	.
=120	=120	=120	=120	=120	=120	=120	=120
0r	.	0Gl	-tris.	0r	.	0gl	-tris.
!!LO:LB:g=original
=121||	=121||	=121||	=121||	=121||	=121||	=121||	=121||
*M2/2	*	*M2/2	*	*M2/2	*	*M2/2	*
*met(C|)	*	*met(C|)	*	*met(C|)	*	*met(C|)	*
1G	Et	[1B	Et	1d	Et	1g	Et
=122	=122	=122	=122	=122	=122	=122	=122
2E	i-	1B]	.	2.e	i-	2.g	i-
2E	-te-	.	.	.	.	.	.
.	.	.	.	4e	-te-	4g	-te-
=123	=123	=123	=123	=123	=123	=123	=123
2C	-rum	2c	i-	2e	-rum	2g	-rum
2C	ven-	2c	-te-	2e	ven-	2g	ven-
=124	=124	=124	=124	=124	=124	=124	=124
2E	-tu-	2B	-rum	2e	-tu-	2g	-tu-
2E	-rus	2B	ven-	2e	-rus	2g	-rus
=125	=125	=125	=125	=125	=125	=125	=125
1D	est	2d	-tu-	1f	est	1a	est
.	.	2d	-rus	.	.	.	.
=126	=126	=126	=126	=126	=126	=126	=126
1G	cum	1d	est	2d	cum	1b	cum
.	.	.	.	[2g	glo-	.	.
=127	=127	=127	=127	=127	=127	=127	=127
2A	glo-	2c	cum	2g]	.	2a	glo-
2A	-ri-	2c	glo-	2f#i	-ri-	2a	-ri-
=128	=128	=128	=128	=128	=128	=128	=128
*lig	*	*lig	*	*	*	*	*
1G	-a	2B	-ri-	1g	-a	2.d	-a
.	.	[2d	.	.	.	.	.
.	.	.	.	.	.	4e	.
*	*	*Xlig	*	*	*	*	*
!!LO:LB:g=original
=129	=129	=129	=129	=129	=129	=129	=129
1D	.	4d]	.	2r	.	4f	.
.	.	4c	.	.	.	4g	.
.	.	2A	-a	2f	ju-	2a	.
*Xlig	*	*	*	*	*	*	*
=130	=130	=130	=130	=130	=130	=130	=130
2GG	ju-	1r	.	2g	-di-	2b	ju-
2GG	-di-	.	.	4.g	-ca-	2b	-di-
.	.	.	.	8f	.	.	.
=131	=131	=131	=131	=131	=131	=131	=131
2GG	-ca-	1G	ju-	2d	.	1b	-ca-
2GG	-re	.	.	2d	-re	.	.
=132	=132	=132	=132	=132	=132	=132	=132
1C	vi-	2G	-di-	2e	vi-	[1g	-re
.	.	2G	-ca-	2e	-vos	.	.
=133	=133	=133	=133	=133	=133	=133	=133
1C	-vos	2c	-re	2e	et	2g]	.
.	.	2c	vi-	2c	mor-	2e	vi-
=134	=134	=134	=134	=134	=134	=134	=134
*lig	*	*lig	*	*	*	*	*
2E	et	2c	-vos	2G	-tu-	2g	-vos
2D	.	2d	et	2A	-os;	2f	et
*Xlig	*	*Xlig	*	*	*	*	*
=135	=135	=135	=135	=135	=135	=135	=135
2G	mor-	4.B	mor-	1r	.	4.d	mor-
.	.	8c	.	.	.	8e	.
4F	.	4d	.	.	.	4f	.
4E	.	[4e	.	.	.	[4g	.
=136	=136	=136	=136	=136	=136	=136	=136
*lig	*	*	*	*	*	*	*
2C	-tu-	8e]	.	2r	.	4g]	.
.	.	8d	.	.	.	.	.
.	.	2c	-tu-	.	.	4a	.
2D	.	.	.	2F	cu-	8b-jL	-tu-
.	.	.	.	.	.	8a	.
.	.	4B	.	.	.	8g	.
.	.	.	.	.	.	8fJ	.
*Xlig	*	*	*	*	*	*	*
!!LO:LB:g=original
=137	=137	=137	=137	=137	=137	=137	=137
1C	-os;	[1c	-os;	1G	-jus	[1e	-os;
=138	=138	=138	=138	=138	=138	=138	=138
1r	.	1c]	.	4.A	re-	1e]	.
.	.	.	.	8B	.	.	.
.	.	.	.	4c	.	.	.
.	.	.	.	8BL	.	.	.
.	.	.	.	8AJ	.	.	.
=139	=139	=139	=139	=139	=139	=139	=139
1r	.	2B	cu-	2G	.	2g	cu-
.	.	4.A	-jus	2F	.	2a	-jus
.	.	8B	.	.	.	.	.
=140	=140	=140	=140	=140	=140	=140	=140
1r	.	4c	.	4E	.	4g	re-
.	.	2d	re-	4D	.	4f	.
.	.	.	.	2A	-gni	2e	-gni
.	.	4c	.	.	.	.	.
=141	=141	=141	=141	=141	=141	=141	=141
1r	.	2B	-gni	1r	.	8dL	non
.	.	.	.	.	.	8e	.
.	.	.	.	.	.	8f	.
.	.	.	.	.	.	8gJ	.
.	.	4A	non	.	.	4a	.
.	.	4G	.	.	.	[4b	e-
=142	=142	=142	=142	=142	=142	=142	=142
1r	.	2c	e-	1r	.	4b]	.
.	.	.	.	.	.	2a	.
.	.	2B	.	.	.	.	.
.	.	.	.	.	.	4g	-rit
=143	=143	=143	=143	=143	=143	=143	=143
1r	.	4A	-rit	1r	.	4.cc	fi-
.	.	4.c	fi-	.	.	.	.
.	.	.	.	.	.	8b	.
.	.	.	.	.	.	8aL	.
.	.	8B	.	.	.	8gJ	.
.	.	[4d	.	.	.	4b	.
!!LO:LB:g=original
=144	=144	=144	=144	=144	=144	=144	=144
1r	.	4d]	.	1r	.	4a	.
.	.	4B	.	.	.	2g	.
.	.	2A	.	.	.	.	.
.	.	.	.	.	.	4f#i	.
=145	=145	=145	=145	=145	=145	=145	=145
1GG	Et	1G	-nis.	1d	Et	1g	-nis.
=146	=146	=146	=146	=146	=146	=146	=146
1C	in	1G	Et	1c	in	2e	Et
.	.	.	.	.	.	2e	in
=147	=147	=147	=147	=147	=147	=147	=147
2C	spi-	2G	in	2c	spi-	2.e	spi-
2C	-ri-	[2c	spi-	[2G	-ri-	.	.
.	.	.	.	.	.	4e	-ri-
=148	=148	=148	=148	=148	=148	=148	=148
1C	-tum	4c]	.	2G]	.	1e	-tum
.	.	4c	-ri-	.	.	.	.
.	.	2c	-tum	2G	-tum	.	.
=149	=149	=149	=149	=149	=149	=149	=149
2C	san-	2c	san-	2G	san-	2e	san-
2C	-ctum,	2c	-ctum,	2G	-ctum,	2e	-ctum,
=150	=150	=150	=150	=150	=150	=150	=150
2E	do-	2B	do-	2G	do-	2g	do-
2E	-mi-	2c	-mi-	2G	-mi-	2g	-mi-
=151	=151	=151	=151	=151	=151	=151	=151
1D	-num	1d	-num	2.A	-num	1f	-num
.	.	.	.	4B	.	.	.
=152	=152	=152	=152	=152	=152	=152	=152
*	*	*	*edit	*	*	*	*
1r	.	2A	et	2c	.	2e	et
.	.	2D	vi-	2d	et	2f	vi-
!!LO:LB:g=original
=153	=153	=153	=153	=153	=153	=153	=153
1r	.	4G	-vi-	4e	vi-	4e	-vi-
.	.	4F	.	2f	-vi-	2a	-fi-
.	.	4D	-fi-	.	.	.	.
.	.	[4c	-can-	[4e	-fi-	[4g	-can-
=154	=154	=154	=154	=154	=154	=154	=154
1r	.	4c]	.	4e]	.	4g]	.
.	.	4d	.	2d	-can-	4f	.
.	.	2A	-tem;	.	.	2e	.
.	.	.	.	4c#i	.	.	.
=155	=155	=155	=155	=155	=155	=155	=155
2D	qui	1r	.	1d	-tem;	1d	-tem;
[2F	ex	.	.	.	.	.	.
=156	=156	=156	=156	=156	=156	=156	=156
*	*	*	*Xedit	*	*	*	*
4F]	.	2D	qui	1r	.	1r	.
4G	.	.	.	.	.	.	.
2A	pa-	[2F	ex	.	.	.	.
=157	=157	=157	=157	=157	=157	=157	=157
2D	-tre	4F]	.	1r	.	1r	.
.	.	4G	.	.	.	.	.
2F	fi-	2A	pa-	.	.	.	.
=158	=158	=158	=158	=158	=158	=158	=158
2F	-li-	4D	-tre	1r	.	1r	.
.	.	2d	fi-	.	.	.	.
2E	-o-	.	.	.	.	.	.
.	.	4c	-li-	.	.	.	.
=159	=159	=159	=159	=159	=159	=159	=159
2D	-que	4B	-o-	1r	.	1r	.
.	.	2A	-que	.	.	.	.
4C	.	.	.	.	.	.	.
4BB	.	[4G	pro-	.	.	.	.
!!LO:LB:g=original
=160	=160	=160	=160	=160	=160	=160	=160
2GG	pro-	4G]	.	1r	.	1r	.
.	.	8FL	.	.	.	.	.
.	.	8EJ	.	.	.	.	.
4BB	.	4D	.	.	.	.	.
4C	.	[4G	-ce-	.	.	.	.
=161	=161	=161	=161	=161	=161	=161	=161
2AA	-ce-	4G]	.	1r	.	1r	.
.	.	4F#i	.	.	.	.	.
2GG	-dit.	4G	-dit.	.	.	.	.
.	.	4G	Qui	.	.	.	.
=162	=162	=162	=162	=162	=162	=162	=162
1r	.	2E	cum	2G	Qui	1r	.
.	.	2D	pa-	2A	cum	.	.
=163	=163	=163	=163	=163	=163	=163	=163
1r	.	2C	-tre	2c	pa-	2r	.
.	.	2r	.	2B	-tre	2g	Qui
=164	=164	=164	=164	=164	=164	=164	=164
1r	.	1r	.	4A	et	2a	cum
.	.	.	.	2c	fi-	.	.
.	.	.	.	.	.	2cc	pa-
.	.	.	.	8BL	.	.	.
.	.	.	.	8AJ	.	.	.
=165	=165	=165	=165	=165	=165	=165	=165
1r	.	1r	.	2G	.	4.b	-tre
.	.	.	.	.	.	8g	.
.	.	.	.	4c	.	4a	.
.	.	.	.	[4d	-li-	[4b	et
=166	=166	=166	=166	=166	=166	=166	=166
1r	.	1r	.	4d]	.	4b]	.
.	.	.	.	8cL	.	2g	fi-
.	.	.	.	8BJ	.	.	.
.	.	.	.	2A	.	.	.
.	.	.	.	.	.	4f#i	-li-
!!LO:LB:g=original
=167	=167	=167	=167	=167	=167	=167	=167
2GG	si-	1r	.	2G	-o	2g	-o
2GG	-mul	.	.	2r	.	2r	.
=168	=168	=168	=168	=168	=168	=168	=168
2AA	ad-	2r	.	1r	.	1r	.
2C	-o-	2G	si-	.	.	.	.
=169	=169	=169	=169	=169	=169	=169	=169
2BB	-ra-	2G	-mul	1r	.	1r	.
4AA	.	2A	ad-	.	.	.	.
[4C	.	.	.	.	.	.	.
=170	=170	=170	=170	=170	=170	=170	=170
4C]	.	2c	-o-	1r	.	1r	.
4AA	.	.	.	.	.	.	.
2GG	.	2B	-ra-	.	.	.	.
=171	=171	=171	=171	=171	=171	=171	=171
4C	.	4A	.	1r	.	1r	.
4D	.	2B	.	.	.	.	.
4BB	.	.	.	.	.	.	.
4C	.	[4G	.	.	.	.	.
=172	=172	=172	=172	=172	=172	=172	=172
2AA	.	4G]	.	1r	.	1r	.
.	.	4F#i	.	.	.	.	.
2GG	-tur	2G	-tur	.	.	.	.
=173	=173	=173	=173	=173	=173	=173	=173
*	*	*	*	*col	*	*	*
2G	et	2B	et	4.d	et	1r	.
.	.	.	.	8e	.	.	.
*	*	*	*	*Xcol	*	*	*
2F	con-	2A	con-	2f	.	.	.
=174	=174	=174	=174	=174	=174	=174	=174
2G	-glo-	2d	-glo-	4d	con-	2b	et
.	.	.	.	4g	-glo-	.	.
4A	-ri-	4c	-ri-	4e	-ri-	2a	con-
4F	-fi-	4A	-fi-	4f	-fi-	.	.
!!LO:LB:g=original
=175	=175	=175	=175	=175	=175	=175	=175
2G	-ca-	2B	-ca-	4.d	-ca-	2dd	-glo-
.	.	.	.	8e	.	.	.
4A	.	2A	.	2f	.	4cc	-ri-
4F	.	.	.	.	.	4a	-fi-
=176	=176	=176	=176	=176	=176	=176	=176
2G	.	4G	.	4e	.	2b	-ca-
.	.	2G	.	[2.d	.	.	.
2D	.	.	.	.	.	2a	.
.	.	4F#i	.	.	.	.	.
=177	=177	=177	=177	=177	=177	=177	=177
2E	.	2G	.	4d]	.	4g	.
.	.	.	.	4c	.	2g	.
2D	.	2A	.	2d	.	.	.
.	.	.	.	.	.	4f#i	.
=178	=178	=178	=178	=178	=178	=178	=178
[1GG	-tur;	1G	-tur;	1B	-tur;	1g	-tur;
=179	=179	=179	=179	=179	=179	=179	=179
1GG]	.	1r	.	1G	qui	1r	.
=180	=180	=180	=180	=180	=180	=180	=180
1r	.	1r	.	2B	lo-	1r	.
.	.	.	.	2c	-cu-	.	.
=181	=181	=181	=181	=181	=181	=181	=181
2GG	qui	1r	.	4B	.	1r	.
.	.	.	.	2d	.	.	.
2BB	lo-	.	.	.	.	.	.
.	.	.	.	8cL	.	.	.
.	.	.	.	8BJ	.	.	.
=182	=182	=182	=182	=182	=182	=182	=182
2C	-cu-	1r	.	2A	.	1r	.
4BB	.	.	.	4G	.	.	.
[4D	.	.	.	[4B	.	.	.
!!LO:LB:g=original
=183	=183	=183	=183	=183	=183	=183	=183
4D]	.	1r	.	4B]	.	1r	.
4BB	.	.	.	8AL	.	.	.
.	.	.	.	8GJ	.	.	.
2AA	-tus	.	.	2F#i	-tus	.	.
=184	=184	=184	=184	=184	=184	=184	=184
*lig	*	*	*	*	*	*	*
2GG	est	1r	.	1G	est	1d	per
2BB	.	.	.	.	.	.	.
*Xlig	*	*	*	*	*	*	*
=185	=185	=185	=185	=185	=185	=185	=185
2AA	.	1r	.	1r	.	2f	pro-
2GG	.	.	.	.	.	2g	-phe-
=186	=186	=186	=186	=186	=186	=186	=186
1r	.	2D	per	1r	.	4f	.
.	.	.	.	.	.	2a	.
.	.	2F	pro-	.	.	.	.
.	.	.	.	.	.	8gL	.
.	.	.	.	.	.	8fJ	.
=187	=187	=187	=187	=187	=187	=187	=187
1r	.	2G	-phe-	1r	.	2e	.
.	.	4F	.	.	.	4d	.
.	.	[4A	.	.	.	[4f	.
=188	=188	=188	=188	=188	=188	=188	=188
1r	.	4A]	.	1r	.	4f]	.
.	.	8GL	.	.	.	8eL	.
.	.	8FJ	.	.	.	8dJ	.
.	.	2E	.	.	.	2c#i	.
=189	=189	=189	=189	=189	=189	=189	=189
1r	.	1D	-tas.	1A	Et	1d	-tas.
=190	=190	=190	=190	=190	=190	=190	=190
1AA	Et	1E	Et	2A	u-	1c	Et
.	.	.	.	2A	-nam	.	.
!!LO:LB:g=original
=191	=191	=191	=191	=191	=191	=191	=191
2AA	u-	2E	u-	2A	san-	2c	u-
2AA	-nam	2E	-nam	2A	-ctam	2c	-nam
=192	=192	=192	=192	=192	=192	=192	=192
2AA	san-	2E	san-	4E	ca-	2c	san-
.	.	.	.	4.A	-tho-	.	.
4AA	-ctam	4E	-ctam	.	.	4c	-ctam
.	.	.	.	8B	.	.	.
4AA	ca-	4E	ca-	4c	.	4c	ca-
=193	=193	=193	=193	=193	=193	=193	=193
2BB	-tho-	2D	-tho-	4B	.	2d	-tho-
.	.	.	.	4G#i	.	.	.
2BB	-li-	2D	-li-	4.G#i	-li-	2d	-li-
.	.	.	.	8F#i	.	.	.
=194	=194	=194	=194	=194	=194	=194	=194
1AA	-cam	2E	-cam	4.A	-cam	2c	-cam
.	.	.	.	8B	.	.	.
.	.	2E	et	2c	.	2c	et
=195	=195	=195	=195	=195	=195	=195	=195
2r	.	2D	a-	2d	et	2f	a-
2D	et	2D	-po-	4.A	a-	2f	-po-
.	.	.	.	8B	.	.	.
=196	=196	=196	=196	=196	=196	=196	=196
2C	a-	2G	-sto-	4.c	-po-	2e	-sto-
.	.	.	.	8B	.	.	.
2C	-po-	2G	-li-	4G	.	2e	-li-
.	.	.	.	[4c	-sto-	.	.
=197	=197	=197	=197	=197	=197	=197	=197
2D	-sto-	2F	-cam	4c]	.	2d	-cam
.	.	.	.	4B	.	.	.
2C	-li-	2G	ec-	2c	-li-	2e	ec-
!!LO:LB:g=original
=198	=198	=198	=198	=198	=198	=198	=198
2C	-cam	2E	-cle-	2G	-cam	2g	-cle-
4D	ec-	4D	.	4r	.	4f	.
[4C	-cle-	[4G	.	[4c	ec-	[4e	.
=199	=199	=199	=199	=199	=199	=199	=199
4C]	.	4G]	.	4c]	.	4e]	.
4D	-si-	4F	-si-	2A	-cle-	2d	-si-
2AA	-am.	2E	-am.	.	.	.	.
.	.	.	.	4A	-si-	4c#i	.
=200	=200	=200	=200	=200	=200	=200	=200
*	*	*	*edit	*	*	*	*
2.D	Con-	4D	Con-	2A	-am.	2d	-am.
.	.	4.F	-fi-	.	.	.	.
.	.	.	.	2r	.	2r	.
.	.	8G	.	.	.	.	.
[4C	-fi-	[4A	.	.	.	.	.
=201	=201	=201	=201	=201	=201	=201	=201
4C]	.	4A]	.	1r	.	1r	.
4BB	.	2G	-te-	.	.	.	.
2AA	-te-	.	.	.	.	.	.
.	.	4F#i	.	.	.	.	.
=202	=202	=202	=202	=202	=202	=202	=202
2GG	-or	4G	-or,	2.D	Con-	4.d	Con-
*	*	*	*Xedit	*	*	*	*
.	.	2d	con-	.	.	.	.
.	.	.	.	.	.	8e	.
2r	.	.	.	.	.	8fL	.
.	.	.	.	.	.	8gJ	.
.	.	[4c	-fi-	[4F	-fi-	[4a	.
=203	=203	=203	=203	=203	=203	=203	=203
1r	.	4c]	.	4F]	.	4a]	.
.	.	4B	.	4G	-te-	2g	-fi-
.	.	2A	-te-	2D	-or	.	.
.	.	.	.	.	.	4f#i	-te-
=204	=204	=204	=204	=204	=204	=204	=204
2GG	u-	2G	-or	2d	u-	2g	-or
2GG	-num	2G	u-	2g	-num	2b	u-
!!LO:LB:g=original
=205	=205	=205	=205	=205	=205	=205	=205
2G	ba-	4G	-num	2g	ba-	4b	-num
.	.	4G	ba-	.	.	4b	ba-
2G	-pti-	2B	-pti-	2g	-pti-	2b	-pti-
=206	=206	=206	=206	=206	=206	=206	=206
1D	-sma	1d	-sma	1f	-sma	[1a	-sma
!	!	!	!	!LO:TX:a:t=[whole]=[whole-dot]	!	!	!
=207	=207	=207	=207	=207	=207	=207	=207
*M3/3%2	*	*M3/3%2	*	*M3/3	*	*	*
*met(3)	*	*met(3)	*	*met(3)	*	*	*
*Xtuplet	*	*Xtuplet	*	*Xtuplet	*	*	*
3%2.r	.	3%2d	in	3%2f	in	1a]	.
.	.	3c	re-	3e	re-	.	.
=208	=208	=208	=208	=208	=208	=208	=208
3%2.r	.	3d	-mis-	3%2d	-mis-	1r	.
.	.	3f	-si-	.	.	.	.
.	.	3e	-o-	3c	-si-	.	.
=209	=209	=209	=209	=209	=209	=209	=209
*Xtuplet	*	*	*	*lig	*	*	*
3%2D	in	3%2d	-nem	3d	-o-	1r	.
.	.	.	.	3f	.	.	.
*	*	*	*	*Xlig	*	*	*
3C	re-	3r	.	3e	.	.	.
!	!	!	!	!	!	!LO:TX:a:t=[whole] = [whole-dot]	!
=210	=210	=210	=210	=210	=210	=210	=210
*M3/2	*	*M3/2	*	*3/2	*	*M3/2	*
*met()	*	*met()	*	*met()	*	*met(C|3)	*
!!primary-mensuration: met(3)
2D	-mis-	1.r	.	1d	-nem,	1d	in
2F	-si-	.	.	.	.	.	.
*	*	*	*	*	*edit	*	*
2E	-o-	.	.	2G	re-	2c	re-
!!LO:LB:g=original
=211	=211	=211	=211	=211	=211	=211	=211
1D	-nem	1d	pec-	2F	-mis-	2d	-mis-
.	.	.	.	2D	.	2f	-si-
2r	.	2c	-ca-	2A	-si-	2e	-o-
=212	=212	=212	=212	=212	=212	=212	=212
1G	pec-	2.B	-to-	4B	-o-	1d	-nem
.	.	.	.	2d	.	.	.
.	.	4G	.	4B	.	.	.
2F	-ca-	2A	.	2A	.	2r	.
=213	=213	=213	=213	=213	=213	=213	=213
2G	-to-	1B	-rum.	2.G	-nem	1dd	pec-
2B	.	.	.	.	.	.	.
*	*	*	*	*	*Xedit	*	*
.	.	.	.	2g	pec-	.	.
2A	-rum.	2r	.	.	.	2cc	-ca-
.	.	.	.	4f#i	.	.	.
=214	=214	=214	=214	=214	=214	=214	=214
1G	Et	1.r	.	2g	-ca-	2.b	-to-
.	.	.	.	2e	.	.	.
.	.	.	.	.	.	4g	.
2F	ex-	.	.	2f	-to-	2a	-rum.
=215	=215	=215	=215	=215	=215	=215	=215
*	*	*	*edit	*	*	*	*
1G	-spe-	1d	Et	1d	-rum.	1b	Et
2G	-cto	2d	ex-	2g	Et	2b	ex-
=216	=216	=216	=216	=216	=216	=216	=216
*	*	*col	*	*col	*	*	*
1G	re-	1d	-spe-	1g	ex-	1b	-spe-
2A	-sur-	[2c	-cto	2e	-spe-	2cc	-cto
!!LO:LB:g=original
=217	=217	=217	=217	=217	=217	=217	=217
*col	*	*	*	*	*	*	*
2F	-re-	2c]	.	2f	.	1a	re-
*	*	*	*Xedit	*	*	*	*
1G	-cti-	1B-i	re-	1d	-cto	.	.
.	.	.	.	.	.	2g	-sur-
*Xcol	*	*Xcol	*	*Xcol	*	*	*
=218	=218	=218	=218	=218	=218	=218	=218
1D	-o-	2A	-sur-	1.r	.	2a	-re-
.	.	1d	-re-	.	.	1b	-cti-
2BB	.	.	.	.	.	.	.
=219	=219	=219	=219	=219	=219	=219	=219
*lig	*	*	*	*	*	*	*
2C	.	2c	-cti-	2e	re-	1a	-o-
2D	.	1B	-o-	2f	-sur-	.	.
*Xlig	*	*	*	*	*	*	*
2E	.	.	.	2e	-re-	2g#i	.
=220	=220	=220	=220	=220	=220	=220	=220
*	*	*	*	*	*	*col	*
1F	-nem	2.A	-nem	1c	-cti-	1a	-nem
.	.	4B	.	.	.	.	.
2E	mor-	2c	mor-	2G	-o	2g	mor-
=221	=221	=221	=221	=221	=221	=221	=221
*	*	*	*	*lig	*	*	*
2D	-tu-	1d	-tu-	2A	nem	2f	-tu-
1A	-o-	.	.	2.c	mor-	1e	-o-
.	.	2c#i	-o-	.	.	.	.
*	*	*	*	*Xlig	*	*Xcol	*
.	.	.	.	4A	.	.	.
=222	=222	=222	=222	=222	=222	=222	=222
*lig	*	*	*	*	*	*	*
2D	.	1d	-rum.	2A	-tu-	1.d	-rum.
2.G	.	.	.	1B	-o-	.	.
.	.	2r	.	.	.	.	.
*Xlig	*	*	*	*	*	*	*
4F	.	.	.	.	.	.	.
!!LO:LB:g=original
=223	=223	=223	=223	=223	=223	=223	=223
*	*	*col	*	*	*	*	*
4E	.	1G	Et	2G	-rum.	1.r	.
4D	.	.	.	.	.	.	.
1C	-rum.	.	.	1g	Et	.	.
.	.	[2c	vi-	.	.	.	.
=224	=224	=224	=224	=224	=224	=224	=224
*	*	*	*	*lig	*	*	*
*	*	*	*	*col	*	*	*
2C	Et	2c]	.	1e	vi-	1.g	Et
1G	vi-	1B	-tam	.	.	.	.
.	.	.	.	[2d	.	.	.
*	*	*Xcol	*	*Xlig	*	*	*
=225	=225	=225	=225	=225	=225	=225	=225
*	*	*	*	*	*	*lig	*
*lig	*	*	*	*	*	*	*
2D	-tam	2A	ven-	2d]	.	2f	vi-
2E	.	2G	.	2B	.	2.e	.
*Xlig	*	*	*	*	*	*	*
2C	ven-	2A	.	2c	.	.	.
*	*	*	*	*Xcol	*	*Xlig	*
.	.	.	.	.	.	4d	.
=226	=226	=226	=226	=226	=226	=226	=226
2D	-tu-	2F	-tu-	1A	-tam	1d	.
1AA	-ri	1E	-ri	.	.	.	.
.	.	.	.	2A	ven-	2c#i	.
=227	=227	=227	=227	=227	=227	=227	=227
*	*	*col	*	*	*	*	*
1A	se-	1D	se-	2.F	-tu-	1.d	-tam
.	.	.	.	4G	.	.	.
*	*	*lig	*	*	*	*	*
2F	-cu-	2F	-cu-	4A	.	.	.
.	.	.	.	4B	.	.	.
=228	=228	=228	=228	=228	=228	=228	=228
*col	*	*	*	*	*	*col	*
2E	.	2G	.	2c	.	2e	ven-
1D	-li.	1A	.	1d	-ri	1f	-tu-
*	*	*Xlig	*	*	*	*	*
*Xcol	*	*Xcol	*	*	*	*Xcol	*
!!LO:LB:g=original
=229	=229	=229	=229	=229	=229	=229	=229
1E	A-	1G	-li.	2.B	se-	1g	-ri
.	.	.	.	4c	.	.	.
2C	.	2c	A-	2e	.	2e	se-
=230	=230	=230	=230	=230	=230	=230	=230
*	*	*	*	*	*	*lig	*
*lig	*	*	*	*lig	*	*	*
2F	.	2A	.	2d	-cu-	2f	.
1E	.	1B	.	1e	.	1g	-cu-
*Xlig	*	*	*	*	*	*Xlig	*
=231	=231	=231	=231	=231	=231	=231	=231
*	*	*lig	*	*	*	*	*
1F	.	1.A	.	1c	-li.	1a	-li.
*col	*	*	*	*Xlig	*	*	*
2A	.	.	.	2c	A-	2cc	A-
=232	=232	=232	=232	=232	=232	=232	=232
*	*	*	*	*lig	*	*	*
*	*	*	*	*col	*	*	*
2G	.	1d	.	2d	.	2b	.
2F	.	.	.	2f	.	2a	.
*	*	*Xlig	*	*	*	*	*
[2G	.	2B	.	[2d	.	[2dd	.
=233	=233	=233	=233	=233	=233	=233	=233
*	*	*lig	*	*	*	*	*
2G]	.	2G	.	2d]	.	4dd]	.
.	.	.	.	.	.	4cc	.
*	*	*	*	*Xlig	*	*	*
2F	.	2c	.	2f	.	2.a	.
*	*	*Xlig	*	*	*	*	*
2G	.	2B	.	2d	.	.	.
.	.	.	.	.	.	4g	.
*Xcol	*	*	*	*Xcol	*	*	*
=234	=234	=234	=234	=234	=234	=234	=234
2E	.	2G	.	2c	.	1g	.
1D	.	1A	.	1d	.	.	.
.	.	.	.	.	.	2f#i	.
!!LO:LB:g=original
=235	=235	=235	=235	=235	=235	=235	=235
0GGl	-men.	0Gl	-men.	0dl	-men.	0gl	-men.
==	==	==	==	==	==	==	==
*-	*-	*-	*-	*-	*-	*-	*-
!!!system-decoration: [*]
!!!RDF**kern: j = editorial accidental, optional, paren up
!!!RDF**kern: i = editorial accidental
!!!RDF**kern: l = terminal breve
!!!PTL: Gaspar van Weerbeke: Collected Works. II. Masses, Part 2
!!!ISBN: 978-1-59551-518-6
!!!PPR: American Institute of Musicology
!!!PC#: Corpus Mensurabilis Musicae 106/II.2
!!!PDT: 2018
!!!PED: Kolb, Paul
!!!YEC: Copyright 2016, Kolb, Paul
!!!YEM: CC-BY-SA 4.0 (https://creativecommons.org/licenses/by-nc/4.0/legalcode)
!!!EED: Sapp, Craig Stuart
!!!EEV: 2022/02/09
!!!title: @{OPR} &mdash; @{OTL}
